src/images_karasa_jaga_svg/cmd/32/basicshapes.ellipse-pie.svg

<svg height="32" viewBox="0 0 32 32" width="32" xmlns="http://www.w3.org/2000/svg" xmlns:xlink="http://www.w3.org/1999/xlink"><linearGradient id="a" gradientTransform="matrix(.97831322 0 0 .75330118 1.387954 15.788725)" gradientUnits="userSpaceOnUse" x1="64" x2="64" y1="128" y2="0"><stop offset="0" stop-color="#fff"/><stop offset=".50643778" stop-color="#fff"/><stop offset=".82296139" stop-color="#f1f1f1"/><stop offset=".90625" stop-color="#eaeaea"/><stop offset="1" stop-color="#dfdfdf"/></linearGradient><linearGradient id="b" gradientUnits="userSpaceOnUse" x1="8.087891" x2="119.91211" y1="64.06459" y2="64.06459"><stop offset="0" stop-color="#7c9fcf"/><stop offset=".5" stop-color="#7c9ece"/><stop offset="1" stop-color="#7b9dcf"/></linearGradient><g transform="scale(.25)"><path d="m59.882812 20.15625a4.0109721 4.0109721 0 0 0 -.121093.0059c-13.64878.812325-26.87645 5.68533-36.410157 13.613241-9.533706 7.927911-15.2593003 18.979368-15.2636714 30.222656a4.0109721 4.0109721 0 0 0 0 .002c-.0000119 11.826311 6.3531654 23.419852 16.7656254 31.437453 10.412459 8.0176 24.750001 12.53711 39.146484 12.53711 14.396482 0 28.734026-4.51951 39.14648-12.53711 10.41246-8.017601 16.76564-19.611142 16.76563-31.4375a4.0109721 4.0109721 0 0 0 -4.00977-4.009766h-51.892574v-35.824218a4.0109721 4.0109721 0 0 0 -4.126954-4.009766z" fill="url(#b)"/><path d="m60 24.166016a51.902351 39.964809 0 0 0 -47.902344 39.833984 51.902351 39.964809 0 0 0 51.902344 39.96484 51.902351 39.964809 0 0 0 51.90234-39.96484h-55.90234z" fill="url(#a)"/></g></svg>

<?xml version="1.0" encoding="UTF-8" standalone="no"?>
<svg
   xmlns:dc="http://purl.org/dc/elements/1.1/"
   xmlns:cc="http://creativecommons.org/ns#"
   xmlns:rdf="http://www.w3.org/1999/02/22-rdf-syntax-ns#"
   xmlns:svg="http://www.w3.org/2000/svg"
   xmlns="http://www.w3.org/2000/svg"
   xmlns:xlink="http://www.w3.org/1999/xlink"
   xmlns:sodipodi="http://sodipodi.sourceforge.net/DTD/sodipodi-0.dtd"
   xmlns:inkscape="http://www.inkscape.org/namespaces/inkscape"
   height="128"
   viewBox="0 0 128 128"
   width="128"
   version="1.1"
   id="svg10"
   sodipodi:docname="basicshapes.ellipse-pie.svg"
   inkscape:version="0.92.3 (unknown)"
   inkscape:export-filename="/home/rizmut/Dokumen/Rizmut/Github/libreoffice-style-karasa-jaga/build/images_karasa_jaga/cmd/32/basicshapes.ellipse-pie.png"
   inkscape:export-xdpi="24"
   inkscape:export-ydpi="24">
  <metadata
     id="metadata16">
    <rdf:RDF>
      <cc:Work
         rdf:about="">
        <dc:format>image/svg+xml</dc:format>
        <dc:type
           rdf:resource="http://purl.org/dc/dcmitype/StillImage" />
        <dc:title></dc:title>
      </cc:Work>
    </rdf:RDF>
  </metadata>
  <defs
     id="defs14">
    <linearGradient
       id="linearGradient7422">
      <stop
         style="stop-color:#7c9fcf;stop-opacity:1"
         offset="0"
         id="stop7424" />
      <stop
         id="stop5348"
         offset="0.5"
         style="stop-color:#7c9ece;stop-opacity:1" />
      <stop
         id="stop7426"
         offset="1"
         style="stop-color:#7b9dcf;stop-opacity:1" />
    </linearGradient>
    <linearGradient
       id="linearGradient3369">
      <stop
         id="stop3372"
         offset="0"
         style="stop-color:#ffffff;stop-opacity:1;" />
      <stop
         style="stop-color:#ffffff;stop-opacity:1;"
         offset="0.50643778"
         id="stop3374" />
      <stop
         style="stop-color:#f1f1f1;stop-opacity:1;"
         offset="0.82296139"
         id="stop3376" />
      <stop
         id="stop3378"
         offset="0.90625"
         style="stop-color:#eaeaea;stop-opacity:1;" />
      <stop
         id="stop3384"
         offset="1"
         style="stop-color:#dfdfdf;stop-opacity:1;" />
    </linearGradient>
    <linearGradient
       inkscape:collect="always"
       xlink:href="#linearGradient3369"
       id="linearGradient861"
       x1="64"
       y1="128"
       x2="64"
       y2="0"
       gradientUnits="userSpaceOnUse"
       gradientTransform="matrix(0.97831322,0,0,0.75330118,1.387954,15.788725)" />
    <linearGradient
       inkscape:collect="always"
       xlink:href="#linearGradient7422"
       id="linearGradient839"
       x1="8.0878906"
       y1="64.06459"
       x2="119.91211"
       y2="64.06459"
       gradientUnits="userSpaceOnUse" />
  </defs>
  <sodipodi:namedview
     pagecolor="#ffffff"
     bordercolor="#666666"
     borderopacity="1"
     objecttolerance="10"
     gridtolerance="10"
     guidetolerance="10"
     inkscape:pageopacity="0"
     inkscape:pageshadow="2"
     inkscape:window-width="1366"
     inkscape:window-height="706"
     id="namedview12"
     showgrid="true"
     inkscape:zoom="2.8284271"
     inkscape:cx="-50.444443"
     inkscape:cy="86.796444"
     inkscape:window-x="0"
     inkscape:window-y="0"
     inkscape:window-maximized="1"
     inkscape:current-layer="svg10"
     inkscape:snap-global="false">
    <inkscape:grid
       type="xygrid"
       id="grid863"
       spacingx="4"
       spacingy="4"
       empspacing="1" />
  </sodipodi:namedview>
  <path
     sodipodi:type="inkscape:offset"
     inkscape:radius="4.010571"
     inkscape:original="M 60 24.166016 A 51.902351 39.964809 0 0 0 12.097656 64 A 51.902351 39.964809 0 0 0 64 103.96484 A 51.902351 39.964809 0 0 0 115.90234 64 L 60 64 L 60 24.166016 z "
     style="fill:url(#linearGradient839);fill-opacity:1.0;stroke:none;stroke-width:4.17035913;stroke-linecap:round;stroke-linejoin:bevel;stroke-opacity:0.73039198"
     id="path829"
     d="m 59.882812,20.15625 a 4.0109721,4.0109721 0 0 0 -0.121093,0.0059 C 46.112939,20.974475 32.885269,25.84748 23.351562,33.775391 13.817856,41.703302 8.0922617,52.754759 8.0878906,63.998047 a 4.0109721,4.0109721 0 0 0 0,0.002 C 8.0878787,75.826358 14.441056,87.419899 24.853516,95.4375 35.265975,103.4551 49.603517,107.97461 64,107.97461 c 14.396482,0 28.734026,-4.51951 39.14648,-12.53711 C 113.55894,87.419899 119.91212,75.826358 119.91211,64 a 4.0109721,4.0109721 0 0 0 -4.00977,-4.009766 H 64.009766 V 24.166016 A 4.0109721,4.0109721 0 0 0 59.882812,20.15625 Z" />
  <path
     style="fill:url(#linearGradient861);fill-opacity:1;stroke:none;stroke-width:4.17035913;stroke-linecap:round;stroke-linejoin:bevel;stroke-opacity:0.73039198"
     d="M 60 24.166016 A 51.902351 39.964809 0 0 0 12.097656 64 A 51.902351 39.964809 0 0 0 64 103.96484 A 51.902351 39.964809 0 0 0 115.90234 64 L 60 64 L 60 24.166016 z "
     id="circle2" />
</svg>
